images/50282870.svg

<?xml version="1.0" encoding="UTF-8"?>
<svg xmlns="http://www.w3.org/2000/svg" xmlns:xlink="http://www.w3.org/1999/xlink" width="300pt" height="300pt" viewBox="0 0 300 300" version="1.1">
<defs>
<g>
<symbol overflow="visible" id="glyph0-0">
<path style="stroke:none;" d="M 0.453125 1.59375 L 0.453125 -6.34375 L 4.953125 -6.34375 L 4.953125 1.59375 Z M 0.953125 1.09375 L 4.453125 1.09375 L 4.453125 -5.84375 L 0.953125 -5.84375 Z M 0.953125 1.09375 "/>
</symbol>
<symbol overflow="visible" id="glyph0-1">
<path style="stroke:none;" d="M 0.890625 -6.5625 L 4.65625 -6.5625 L 4.65625 -5.8125 L 1.765625 -5.8125 L 1.765625 -3.875 L 4.375 -3.875 L 4.375 -3.140625 L 1.765625 -3.140625 L 1.765625 0 L 0.890625 0 Z M 0.890625 -6.5625 "/>
</symbol>
<symbol overflow="visible" id="glyph0-2">
<path style="stroke:none;" d="M 0.890625 -6.5625 L 2.078125 -6.5625 L 4.984375 -1.078125 L 4.984375 -6.5625 L 5.84375 -6.5625 L 5.84375 0 L 4.65625 0 L 1.75 -5.484375 L 1.75 0 L 0.890625 0 Z M 0.890625 -6.5625 "/>
</symbol>
<symbol overflow="visible" id="glyph0-3">
<path style="stroke:none;" d="M 0.890625 -6.5625 L 1.765625 -6.5625 L 1.765625 -3.875 L 5 -3.875 L 5 -6.5625 L 5.890625 -6.5625 L 5.890625 0 L 5 0 L 5 -3.125 L 1.765625 -3.125 L 1.765625 0 L 0.890625 0 Z M 0.890625 -6.5625 "/>
</symbol>
<symbol overflow="visible" id="glyph0-4">
<path style="stroke:none;" d="M 3.546875 -5.953125 C 2.898438 -5.953125 2.382812 -5.710938 2 -5.234375 C 1.625 -4.753906 1.4375 -4.101562 1.4375 -3.28125 C 1.4375 -2.445312 1.625 -1.789062 2 -1.3125 C 2.382812 -0.832031 2.898438 -0.59375 3.546875 -0.59375 C 4.191406 -0.59375 4.703125 -0.832031 5.078125 -1.3125 C 5.453125 -1.789062 5.640625 -2.445312 5.640625 -3.28125 C 5.640625 -4.101562 5.453125 -4.753906 5.078125 -5.234375 C 4.703125 -5.710938 4.191406 -5.953125 3.546875 -5.953125 Z M 3.546875 -6.6875 C 4.460938 -6.6875 5.195312 -6.375 5.75 -5.75 C 6.300781 -5.132812 6.578125 -4.3125 6.578125 -3.28125 C 6.578125 -2.238281 6.300781 -1.410156 5.75 -0.796875 C 5.195312 -0.179688 4.460938 0.125 3.546875 0.125 C 2.617188 0.125 1.878906 -0.179688 1.328125 -0.796875 C 0.773438 -1.410156 0.5 -2.238281 0.5 -3.28125 C 0.5 -4.3125 0.773438 -5.132812 1.328125 -5.75 C 1.878906 -6.375 2.617188 -6.6875 3.546875 -6.6875 Z M 3.546875 -6.6875 "/>
</symbol>
</g>
</defs>
<g id="surface18409">
<rect x="0" y="0" width="300" height="300" style="fill:rgb(100%,100%,100%);fill-opacity:1;stroke:none;"/>
<path style="fill:none;stroke-width:1.2;stroke-linecap:butt;stroke-linejoin:miter;stroke:rgb(20%,80%,80%);stroke-opacity:1;stroke-miterlimit:10;" d="M 185.492188 199.6875 L 175.929688 197.316406 "/>
<path style="fill:none;stroke-width:1.2;stroke-linecap:butt;stroke-linejoin:miter;stroke:rgb(0%,0%,0%);stroke-opacity:1;stroke-miterlimit:10;" d="M 175.929688 197.316406 L 166.367188 194.945312 "/>
<path style=" stroke:none;fill-rule:nonzero;fill:rgb(100%,100%,100%);fill-opacity:1;" d="M 182.492188 194.1875 L 188.492188 194.1875 L 188.492188 205.1875 L 182.492188 205.1875 Z M 182.492188 194.1875 "/>
<g style="fill:rgb(20%,80%,80%);fill-opacity:1;">
  <use xlink:href="#glyph0-1" x="182.492188" y="202.850586"/>
</g>
<path style="fill:none;stroke-width:1.2;stroke-linecap:butt;stroke-linejoin:miter;stroke:rgb(0%,0%,0%);stroke-opacity:1;stroke-miterlimit:10;" d="M 166.367188 194.945312 L 152.695312 209.136719 "/>
<path style="fill:none;stroke-width:1.2;stroke-linecap:butt;stroke-linejoin:miter;stroke:rgb(0%,0%,0%);stroke-opacity:1;stroke-miterlimit:10;" d="M 161.660156 193.148438 L 150.722656 204.5 "/>
<path style="fill:none;stroke-width:1.2;stroke-linecap:butt;stroke-linejoin:miter;stroke:rgb(0%,0%,0%);stroke-opacity:1;stroke-miterlimit:10;" d="M 160.910156 176.011719 L 166.367188 194.945312 "/>
<path style="fill:none;stroke-width:1.2;stroke-linecap:butt;stroke-linejoin:miter;stroke:rgb(0%,0%,0%);stroke-opacity:1;stroke-miterlimit:10;" d="M 152.695312 209.136719 L 133.570312 204.394531 "/>
<path style="fill:none;stroke-width:1.2;stroke-linecap:butt;stroke-linejoin:miter;stroke:rgb(0%,0%,0%);stroke-opacity:1;stroke-miterlimit:10;" d="M 133.570312 204.394531 L 128.117188 185.460938 "/>
<path style="fill:none;stroke-width:1.2;stroke-linecap:butt;stroke-linejoin:miter;stroke:rgb(0%,0%,0%);stroke-opacity:1;stroke-miterlimit:10;" d="M 137.480469 201.21875 L 133.117188 186.070312 "/>
<path style="fill:none;stroke-width:1.2;stroke-linecap:butt;stroke-linejoin:miter;stroke:rgb(0%,0%,0%);stroke-opacity:1;stroke-miterlimit:10;" d="M 128.117188 185.460938 L 118.554688 183.089844 "/>
<path style="fill:none;stroke-width:1.2;stroke-linecap:butt;stroke-linejoin:miter;stroke:rgb(0%,0%,100%);stroke-opacity:1;stroke-miterlimit:10;" d="M 118.554688 183.089844 L 108.992188 180.71875 "/>
<path style="fill:none;stroke-width:1.2;stroke-linecap:butt;stroke-linejoin:miter;stroke:rgb(0%,0%,0%);stroke-opacity:1;stroke-miterlimit:10;" d="M 128.117188 185.460938 L 141.785156 171.269531 "/>
<path style="fill:none;stroke-width:1.2;stroke-linecap:butt;stroke-linejoin:miter;stroke:rgb(0%,0%,100%);stroke-opacity:1;stroke-miterlimit:10;" d="M 108.992188 180.71875 L 106.261719 171.25 "/>
<path style="fill:none;stroke-width:1.2;stroke-linecap:butt;stroke-linejoin:miter;stroke:rgb(0%,0%,0%);stroke-opacity:1;stroke-miterlimit:10;" d="M 106.261719 171.25 L 103.535156 161.785156 "/>
<path style=" stroke:none;fill-rule:nonzero;fill:rgb(100%,100%,100%);fill-opacity:1;" d="M 101.992188 175.21875 L 115.992188 175.21875 L 115.992188 186.21875 L 101.992188 186.21875 Z M 101.992188 175.21875 "/>
<g style="fill:rgb(0%,0%,100%);fill-opacity:1;">
  <use xlink:href="#glyph0-2" x="101.992188" y="183.881836"/>
  <use xlink:href="#glyph0-3" x="108.969727" y="183.881836"/>
</g>
<path style="fill:none;stroke-width:1.2;stroke-linecap:butt;stroke-linejoin:miter;stroke:rgb(0%,0%,0%);stroke-opacity:1;stroke-miterlimit:10;" d="M 105.203125 163.390625 L 112.039062 156.296875 "/>
<path style="fill:none;stroke-width:1.2;stroke-linecap:butt;stroke-linejoin:miter;stroke:rgb(100%,0%,0%);stroke-opacity:1;stroke-miterlimit:10;" d="M 112.039062 156.296875 L 118.875 149.199219 "/>
<path style="fill:none;stroke-width:1.2;stroke-linecap:butt;stroke-linejoin:miter;stroke:rgb(0%,0%,0%);stroke-opacity:1;stroke-miterlimit:10;" d="M 101.867188 160.175781 L 108.699219 153.078125 "/>
<path style="fill:none;stroke-width:1.2;stroke-linecap:butt;stroke-linejoin:miter;stroke:rgb(100%,0%,0%);stroke-opacity:1;stroke-miterlimit:10;" d="M 108.699219 153.078125 L 115.535156 145.984375 "/>
<path style="fill:none;stroke-width:1.2;stroke-linecap:butt;stroke-linejoin:miter;stroke:rgb(0%,0%,0%);stroke-opacity:1;stroke-miterlimit:10;" d="M 103.535156 161.785156 L 84.410156 157.039062 "/>
<path style=" stroke:none;fill-rule:nonzero;fill:rgb(100%,100%,100%);fill-opacity:1;" d="M 113.207031 142.09375 L 121.207031 142.09375 L 121.207031 153.09375 L 113.207031 153.09375 Z M 113.207031 142.09375 "/>
<g style="fill:rgb(100%,0%,0%);fill-opacity:1;">
  <use xlink:href="#glyph0-4" x="113.207031" y="150.756836"/>
</g>
<path style="fill:none;stroke-width:1.2;stroke-linecap:butt;stroke-linejoin:miter;stroke:rgb(0%,0%,0%);stroke-opacity:1;stroke-miterlimit:10;" d="M 84.410156 157.039062 L 78.957031 138.105469 "/>
<path style="fill:none;stroke-width:1.2;stroke-linecap:butt;stroke-linejoin:miter;stroke:rgb(0%,0%,0%);stroke-opacity:1;stroke-miterlimit:10;" d="M 79.410156 156.429688 L 75.046875 141.285156 "/>
<path style="fill:none;stroke-width:1.2;stroke-linecap:butt;stroke-linejoin:miter;stroke:rgb(0%,0%,0%);stroke-opacity:1;stroke-miterlimit:10;" d="M 70.742188 171.230469 L 84.410156 157.039062 "/>
<path style="fill:none;stroke-width:1.2;stroke-linecap:butt;stroke-linejoin:miter;stroke:rgb(0%,0%,0%);stroke-opacity:1;stroke-miterlimit:10;" d="M 78.957031 138.105469 L 59.832031 133.363281 "/>
<path style="fill:none;stroke-width:1.2;stroke-linecap:butt;stroke-linejoin:miter;stroke:rgb(0%,0%,0%);stroke-opacity:1;stroke-miterlimit:10;" d="M 59.832031 133.363281 L 57.101562 123.898438 "/>
<path style="fill:none;stroke-width:1.2;stroke-linecap:butt;stroke-linejoin:miter;stroke:rgb(0%,0%,100%);stroke-opacity:1;stroke-miterlimit:10;" d="M 57.101562 123.898438 L 54.375 114.429688 "/>
<path style="fill:none;stroke-width:1.2;stroke-linecap:butt;stroke-linejoin:miter;stroke:rgb(0%,0%,0%);stroke-opacity:1;stroke-miterlimit:10;" d="M 59.832031 133.363281 L 46.160156 147.554688 "/>
<path style="fill:none;stroke-width:1.2;stroke-linecap:butt;stroke-linejoin:miter;stroke:rgb(0%,0%,0%);stroke-opacity:1;stroke-miterlimit:10;" d="M 61.800781 138 L 50.867188 149.351562 "/>
<path style="fill:none;stroke-width:1.2;stroke-linecap:butt;stroke-linejoin:miter;stroke:rgb(0%,0%,100%);stroke-opacity:1;stroke-miterlimit:10;" d="M 54.375 114.429688 L 61.210938 107.335938 "/>
<path style="fill:none;stroke-width:1.2;stroke-linecap:butt;stroke-linejoin:miter;stroke:rgb(0%,0%,0%);stroke-opacity:1;stroke-miterlimit:10;" d="M 61.210938 107.335938 L 68.042969 100.238281 "/>
<path style="fill:none;stroke-width:1.2;stroke-linecap:butt;stroke-linejoin:miter;stroke:rgb(0%,0%,100%);stroke-opacity:1;stroke-miterlimit:10;" d="M 54.375 114.429688 L 44.8125 112.058594 "/>
<path style="fill:none;stroke-width:1.2;stroke-linecap:butt;stroke-linejoin:miter;stroke:rgb(0%,0%,0%);stroke-opacity:1;stroke-miterlimit:10;" d="M 44.8125 112.058594 L 35.25 109.6875 "/>
<path style=" stroke:none;fill-rule:nonzero;fill:rgb(100%,100%,100%);fill-opacity:1;" d="M 51.375 108.929688 L 58.375 108.929688 L 58.375 119.929688 L 51.375 119.929688 Z M 51.375 108.929688 "/>
<g style="fill:rgb(0%,0%,100%);fill-opacity:1;">
  <use xlink:href="#glyph0-2" x="51.375" y="117.592773"/>
</g>
<path style="fill:none;stroke-width:1.2;stroke-linecap:butt;stroke-linejoin:miter;stroke:rgb(0%,0%,0%);stroke-opacity:1;stroke-miterlimit:10;" d="M 46.160156 147.554688 L 51.617188 166.488281 "/>
<path style="fill:none;stroke-width:1.2;stroke-linecap:butt;stroke-linejoin:miter;stroke:rgb(0%,0%,0%);stroke-opacity:1;stroke-miterlimit:10;" d="M 51.617188 166.488281 L 70.742188 171.230469 "/>
<path style="fill:none;stroke-width:1.2;stroke-linecap:butt;stroke-linejoin:miter;stroke:rgb(0%,0%,0%);stroke-opacity:1;stroke-miterlimit:10;" d="M 54.644531 162.464844 L 69.945312 166.257812 "/>
<path style="fill:none;stroke-width:1.2;stroke-linecap:butt;stroke-linejoin:miter;stroke:rgb(0%,0%,0%);stroke-opacity:1;stroke-miterlimit:10;" d="M 141.785156 171.269531 L 160.910156 176.011719 "/>
<path style="fill:none;stroke-width:1.2;stroke-linecap:butt;stroke-linejoin:miter;stroke:rgb(0%,0%,0%);stroke-opacity:1;stroke-miterlimit:10;" d="M 142.582031 176.242188 L 157.882812 180.039062 "/>
<path style="fill:none;stroke-width:1.2;stroke-linecap:butt;stroke-linejoin:miter;stroke:rgb(0%,0%,0%);stroke-opacity:1;stroke-miterlimit:10;" d="M 160.910156 176.011719 L 167.746094 168.914062 "/>
<path style="fill:none;stroke-width:1.2;stroke-linecap:butt;stroke-linejoin:miter;stroke:rgb(0%,0%,100%);stroke-opacity:1;stroke-miterlimit:10;" d="M 167.746094 168.914062 L 174.582031 161.820312 "/>
<path style="fill:none;stroke-width:1.2;stroke-linecap:butt;stroke-linejoin:miter;stroke:rgb(0%,0%,100%);stroke-opacity:1;stroke-miterlimit:10;" d="M 174.582031 161.820312 L 184.144531 164.191406 "/>
<path style="fill:none;stroke-width:1.2;stroke-linecap:butt;stroke-linejoin:miter;stroke:rgb(0%,0%,0%);stroke-opacity:1;stroke-miterlimit:10;" d="M 184.144531 164.191406 L 193.707031 166.5625 "/>
<path style=" stroke:none;fill-rule:nonzero;fill:rgb(100%,100%,100%);fill-opacity:1;" d="M 167.582031 156.320312 L 181.582031 156.320312 L 181.582031 167.320312 L 167.582031 167.320312 Z M 167.582031 156.320312 "/>
<g style="fill:rgb(0%,0%,100%);fill-opacity:1;">
  <use xlink:href="#glyph0-2" x="167.582031" y="164.983398"/>
  <use xlink:href="#glyph0-3" x="174.55957" y="164.983398"/>
</g>
<path style="fill:none;stroke-width:1.2;stroke-linecap:butt;stroke-linejoin:miter;stroke:rgb(0%,0%,0%);stroke-opacity:1;stroke-miterlimit:10;" d="M 191.476562 167.203125 L 194.207031 176.671875 "/>
<path style="fill:none;stroke-width:1.2;stroke-linecap:butt;stroke-linejoin:miter;stroke:rgb(100%,0%,0%);stroke-opacity:1;stroke-miterlimit:10;" d="M 194.207031 176.671875 L 196.933594 186.136719 "/>
<path style="fill:none;stroke-width:1.2;stroke-linecap:butt;stroke-linejoin:miter;stroke:rgb(0%,0%,0%);stroke-opacity:1;stroke-miterlimit:10;" d="M 195.933594 165.921875 L 198.660156 175.386719 "/>
<path style="fill:none;stroke-width:1.2;stroke-linecap:butt;stroke-linejoin:miter;stroke:rgb(100%,0%,0%);stroke-opacity:1;stroke-miterlimit:10;" d="M 198.660156 175.386719 L 201.386719 184.855469 "/>
<path style="fill:none;stroke-width:1.2;stroke-linecap:butt;stroke-linejoin:miter;stroke:rgb(0%,0%,0%);stroke-opacity:1;stroke-miterlimit:10;" d="M 193.707031 166.5625 L 207.375 152.371094 "/>
<path style=" stroke:none;fill-rule:nonzero;fill:rgb(100%,100%,100%);fill-opacity:1;" d="M 195.160156 179.996094 L 203.160156 179.996094 L 203.160156 190.996094 L 195.160156 190.996094 Z M 195.160156 179.996094 "/>
<g style="fill:rgb(100%,0%,0%);fill-opacity:1;">
  <use xlink:href="#glyph0-4" x="195.160156" y="188.65918"/>
</g>
<path style="fill:none;stroke-width:1.2;stroke-linecap:butt;stroke-linejoin:miter;stroke:rgb(0%,0%,0%);stroke-opacity:1;stroke-miterlimit:10;" d="M 207.375 152.371094 L 226.5 157.113281 "/>
<path style="fill:none;stroke-width:1.2;stroke-linecap:butt;stroke-linejoin:miter;stroke:rgb(0%,0%,0%);stroke-opacity:1;stroke-miterlimit:10;" d="M 210.402344 148.34375 L 225.703125 152.140625 "/>
<path style="fill:none;stroke-width:1.2;stroke-linecap:butt;stroke-linejoin:miter;stroke:rgb(0%,0%,0%);stroke-opacity:1;stroke-miterlimit:10;" d="M 201.917969 133.4375 L 207.375 152.371094 "/>
<path style="fill:none;stroke-width:1.2;stroke-linecap:butt;stroke-linejoin:miter;stroke:rgb(0%,0%,0%);stroke-opacity:1;stroke-miterlimit:10;" d="M 226.5 157.113281 L 240.167969 142.921875 "/>
<path style="fill:none;stroke-width:1.2;stroke-linecap:butt;stroke-linejoin:miter;stroke:rgb(0%,0%,0%);stroke-opacity:1;stroke-miterlimit:10;" d="M 240.167969 142.921875 L 249.730469 145.292969 "/>
<path style="fill:none;stroke-width:1.2;stroke-linecap:butt;stroke-linejoin:miter;stroke:rgb(100%,0%,0%);stroke-opacity:1;stroke-miterlimit:10;" d="M 249.730469 145.292969 L 259.292969 147.664062 "/>
<path style="fill:none;stroke-width:1.2;stroke-linecap:butt;stroke-linejoin:miter;stroke:rgb(0%,0%,0%);stroke-opacity:1;stroke-miterlimit:10;" d="M 240.167969 142.921875 L 234.714844 123.988281 "/>
<path style="fill:none;stroke-width:1.2;stroke-linecap:butt;stroke-linejoin:miter;stroke:rgb(0%,0%,0%);stroke-opacity:1;stroke-miterlimit:10;" d="M 235.167969 142.3125 L 230.804688 127.164062 "/>
<path style="fill:none;stroke-width:1.2;stroke-linecap:butt;stroke-linejoin:miter;stroke:rgb(100%,0%,0%);stroke-opacity:1;stroke-miterlimit:10;" d="M 259.292969 147.664062 L 262.023438 157.132812 "/>
<path style="fill:none;stroke-width:1.2;stroke-linecap:butt;stroke-linejoin:miter;stroke:rgb(0%,0%,0%);stroke-opacity:1;stroke-miterlimit:10;" d="M 262.023438 157.132812 L 264.75 166.597656 "/>
<path style=" stroke:none;fill-rule:nonzero;fill:rgb(100%,100%,100%);fill-opacity:1;" d="M 255.292969 142.164062 L 263.292969 142.164062 L 263.292969 153.164062 L 255.292969 153.164062 Z M 255.292969 142.164062 "/>
<g style="fill:rgb(100%,0%,0%);fill-opacity:1;">
  <use xlink:href="#glyph0-4" x="255.292969" y="150.827148"/>
</g>
<path style="fill:none;stroke-width:1.2;stroke-linecap:butt;stroke-linejoin:miter;stroke:rgb(0%,0%,0%);stroke-opacity:1;stroke-miterlimit:10;" d="M 234.714844 123.988281 L 241.550781 116.894531 "/>
<path style="fill:none;stroke-width:1.2;stroke-linecap:butt;stroke-linejoin:miter;stroke:rgb(100%,0%,0%);stroke-opacity:1;stroke-miterlimit:10;" d="M 241.550781 116.894531 L 248.382812 109.796875 "/>
<path style="fill:none;stroke-width:1.2;stroke-linecap:butt;stroke-linejoin:miter;stroke:rgb(0%,0%,0%);stroke-opacity:1;stroke-miterlimit:10;" d="M 234.714844 123.988281 L 215.589844 119.246094 "/>
<path style="fill:none;stroke-width:1.2;stroke-linecap:butt;stroke-linejoin:miter;stroke:rgb(100%,0%,0%);stroke-opacity:1;stroke-miterlimit:10;" d="M 248.382812 109.796875 L 245.65625 100.332031 "/>
<path style="fill:none;stroke-width:1.2;stroke-linecap:butt;stroke-linejoin:miter;stroke:rgb(0%,0%,0%);stroke-opacity:1;stroke-miterlimit:10;" d="M 245.65625 100.332031 L 242.929688 90.863281 "/>
<path style=" stroke:none;fill-rule:nonzero;fill:rgb(100%,100%,100%);fill-opacity:1;" d="M 244.382812 104.296875 L 252.382812 104.296875 L 252.382812 115.296875 L 244.382812 115.296875 Z M 244.382812 104.296875 "/>
<g style="fill:rgb(100%,0%,0%);fill-opacity:1;">
  <use xlink:href="#glyph0-4" x="244.382812" y="112.959961"/>
</g>
<path style="fill:none;stroke-width:1.2;stroke-linecap:butt;stroke-linejoin:miter;stroke:rgb(0%,0%,0%);stroke-opacity:1;stroke-miterlimit:10;" d="M 215.589844 119.246094 L 201.917969 133.4375 "/>
<path style="fill:none;stroke-width:1.2;stroke-linecap:butt;stroke-linejoin:miter;stroke:rgb(0%,0%,0%);stroke-opacity:1;stroke-miterlimit:10;" d="M 217.5625 123.882812 L 206.625 135.234375 "/>
</g>
</svg>

<svg xmlns="http://www.w3.org/2000/svg" xmlns:xlink="http://www.w3.org/1999/xlink" width="300pt" height="300pt" viewBox="0 0 300 300"><defs><symbol overflow="visible"><path d="M.453 1.594v-7.938h4.5v7.938zm.5-.5h3.5v-6.938h-3.5zm0 0"/></symbol><symbol overflow="visible" id="a"><path d="M.89-6.563h3.766v.75h-2.89v1.938h2.61v.734h-2.61V0H.89zm0 0"/></symbol><symbol overflow="visible" id="b"><path d="M.89-6.563H2.08l2.906 5.485v-5.484h.86V0H4.656L1.75-5.484V0H.89zm0 0"/></symbol><symbol overflow="visible" id="c"><path d="M.89-6.563h.876v2.688H5v-2.688h.89V0H5v-3.125H1.766V0H.89zm0 0"/></symbol><symbol overflow="visible" id="d"><path d="M3.547-5.953c-.65 0-1.164.242-1.547.72-.375.48-.563 1.13-.563 1.952 0 .835.188 1.49.563 1.967.383.48.898.72 1.547.72.644 0 1.156-.24 1.53-.72.376-.476.564-1.132.564-1.968 0-.822-.187-1.474-.562-1.954-.375-.477-.887-.72-1.53-.72zm0-.734c.914 0 1.648.312 2.203.937.55.617.828 1.438.828 2.47 0 1.042-.277 1.87-.828 2.483-.555.617-1.29.922-2.203.922-.93 0-1.668-.305-2.22-.922C.774-1.41.5-2.237.5-3.28c0-1.033.273-1.853.828-2.47.55-.625 1.29-.938 2.22-.938zm0 0"/></symbol></defs><g><path fill="#fff" d="M0 0h300v300H0z"/><path d="M185.492 199.688l-9.562-2.372" stroke-width="1.2" stroke="#3cc" stroke-miterlimit="10" fill="none"/><path d="M175.93 197.316l-9.563-2.37" stroke-width="1.2" stroke="#000" stroke-miterlimit="10" fill="none"/><path d="M182.492 194.188h6v11h-6zm0 0" fill="#fff"/><use xlink:href="#a" x="182.492" y="202.851" fill="#3cc"/><path d="M166.367 194.945l-13.672 14.192M161.66 193.148L150.723 204.5M160.91 176.012l5.457 18.933M152.695 209.137l-19.125-4.742M133.57 204.395l-5.453-18.934M137.48 201.22l-4.363-15.15M128.117 185.46l-9.562-2.37" stroke-width="1.2" stroke="#000" stroke-miterlimit="10" fill="none"/><path d="M118.555 183.09l-9.563-2.37" stroke-width="1.2" stroke="#00f" stroke-miterlimit="10" fill="none"/><path d="M128.117 185.46l13.668-14.19" stroke-width="1.2" stroke="#000" stroke-miterlimit="10" fill="none"/><path d="M108.992 180.72l-2.73-9.47" stroke-width="1.2" stroke="#00f" stroke-miterlimit="10" fill="none"/><path d="M106.262 171.25l-2.727-9.465" stroke-width="1.2" stroke="#000" stroke-miterlimit="10" fill="none"/><path d="M101.992 175.22h14v11h-14zm0 0" fill="#fff"/><g fill="#00f"><use xlink:href="#b" x="101.992" y="183.882"/><use xlink:href="#c" x="108.97" y="183.882"/></g><path d="M105.203 163.39l6.836-7.093" stroke-width="1.2" stroke="#000" stroke-miterlimit="10" fill="none"/><path d="M112.04 156.297l6.835-7.098" stroke-width="1.2" stroke="#f00" stroke-miterlimit="10" fill="none"/><path d="M101.867 160.176l6.832-7.098" stroke-width="1.2" stroke="#000" stroke-miterlimit="10" fill="none"/><path d="M108.7 153.078l6.835-7.094" stroke-width="1.2" stroke="#f00" stroke-miterlimit="10" fill="none"/><path d="M103.535 161.785L84.41 157.04" stroke-width="1.2" stroke="#000" stroke-miterlimit="10" fill="none"/><path d="M113.207 142.094h8v11h-8zm0 0" fill="#fff"/><use xlink:href="#d" x="113.207" y="150.757" fill="#f00"/><path d="M84.41 157.04l-5.453-18.935M79.41 156.43l-4.363-15.145M70.742 171.23l13.668-14.19M78.957 138.105l-19.125-4.742M59.832 133.363l-2.73-9.465" stroke-width="1.2" stroke="#000" stroke-miterlimit="10" fill="none"/><path d="M57.102 123.898l-2.727-9.468" stroke-width="1.2" stroke="#00f" stroke-miterlimit="10" fill="none"/><path d="M59.832 133.363L46.16 147.555M61.8 138l-10.933 11.352" stroke-width="1.2" stroke="#000" stroke-miterlimit="10" fill="none"/><path d="M54.375 114.43l6.836-7.094" stroke-width="1.2" stroke="#00f" stroke-miterlimit="10" fill="none"/><path d="M61.21 107.336l6.833-7.098" stroke-width="1.2" stroke="#000" stroke-miterlimit="10" fill="none"/><path d="M54.375 114.43l-9.563-2.37" stroke-width="1.2" stroke="#00f" stroke-miterlimit="10" fill="none"/><path d="M44.813 112.06l-9.563-2.373" stroke-width="1.2" stroke="#000" stroke-miterlimit="10" fill="none"/><path d="M51.375 108.93h7v11h-7zm0 0" fill="#fff"/><use xlink:href="#b" x="51.375" y="117.593" fill="#00f"/><path d="M46.16 147.555l5.457 18.933M51.617 166.488l19.125 4.742M54.645 162.465l15.3 3.793M141.785 171.27l19.125 4.742M142.582 176.242l15.3 3.797M160.91 176.012l6.836-7.098" stroke-width="1.2" stroke="#000" stroke-miterlimit="10" fill="none"/><path d="M167.746 168.914l6.836-7.094M174.582 161.82l9.563 2.37" stroke-width="1.2" stroke="#00f" stroke-miterlimit="10" fill="none"/><path d="M184.145 164.19l9.562 2.373" stroke-width="1.2" stroke="#000" stroke-miterlimit="10" fill="none"/><path d="M167.582 156.32h14v11h-14zm0 0" fill="#fff"/><g fill="#00f"><use xlink:href="#b" x="167.582" y="164.983"/><use xlink:href="#c" x="174.56" y="164.983"/></g><path d="M191.477 167.203l2.73 9.47" stroke-width="1.2" stroke="#000" stroke-miterlimit="10" fill="none"/><path d="M194.207 176.672l2.727 9.465" stroke-width="1.2" stroke="#f00" stroke-miterlimit="10" fill="none"/><path d="M195.934 165.922l2.726 9.465" stroke-width="1.2" stroke="#000" stroke-miterlimit="10" fill="none"/><path d="M198.66 175.387l2.727 9.468" stroke-width="1.2" stroke="#f00" stroke-miterlimit="10" fill="none"/><path d="M193.707 166.563l13.668-14.192" stroke-width="1.2" stroke="#000" stroke-miterlimit="10" fill="none"/><path d="M195.16 179.996h8v11h-8zm0 0" fill="#fff"/><use xlink:href="#d" x="195.16" y="188.659" fill="#f00"/><path d="M207.375 152.37l19.125 4.743M210.402 148.344l15.3 3.797M201.918 133.438l5.457 18.933M226.5 157.113l13.668-14.19M240.168 142.922l9.562 2.37" stroke-width="1.2" stroke="#000" stroke-miterlimit="10" fill="none"/><path d="M249.73 145.293l9.563 2.37" stroke-width="1.2" stroke="#f00" stroke-miterlimit="10" fill="none"/><path d="M240.168 142.922l-5.453-18.934M235.168 142.313l-4.363-15.15" stroke-width="1.2" stroke="#000" stroke-miterlimit="10" fill="none"/><path d="M259.293 147.664l2.73 9.47" stroke-width="1.2" stroke="#f00" stroke-miterlimit="10" fill="none"/><path d="M262.023 157.133l2.727 9.465" stroke-width="1.2" stroke="#000" stroke-miterlimit="10" fill="none"/><path d="M255.293 142.164h8v11h-8zm0 0" fill="#fff"/><use xlink:href="#d" x="255.293" y="150.827" fill="#f00"/><path d="M234.715 123.988l6.836-7.093" stroke-width="1.2" stroke="#000" stroke-miterlimit="10" fill="none"/><path d="M241.55 116.895l6.833-7.098" stroke-width="1.2" stroke="#f00" stroke-miterlimit="10" fill="none"/><path d="M234.715 123.988l-19.125-4.742" stroke-width="1.2" stroke="#000" stroke-miterlimit="10" fill="none"/><path d="M248.383 109.797l-2.727-9.465" stroke-width="1.2" stroke="#f00" stroke-miterlimit="10" fill="none"/><path d="M245.656 100.332l-2.726-9.47" stroke-width="1.2" stroke="#000" stroke-miterlimit="10" fill="none"/><path d="M244.383 104.297h8v11h-8zm0 0" fill="#fff"/><use xlink:href="#d" x="244.383" y="112.96" fill="#f00"/><path d="M215.59 119.246l-13.672 14.192M217.563 123.883l-10.938 11.35" stroke-width="1.2" stroke="#000" stroke-miterlimit="10" fill="none"/></g></svg>
